miniprogram/images/black-gold/heart_1.svg

<svg height="200" viewBox="0 0 1024 1024" width="200" xmlns="http://www.w3.org/2000/svg"><path d="m1017.152 426.592c.864-8.64 1.312-17.44 1.312-26.304 0-145.408-117.856-263.328-263.296-263.328-107.04 0-199.168 63.968-240.32 155.712-41.152-91.776-133.28-155.712-240.32-155.712-145.408 0-263.264 117.92-263.264 263.328 0 8.864.448 17.664 1.28 26.304 0 0 5.152 259.264 505.536 520.096 500.32-260.832 499.072-520.096 499.072-520.096zm-735.136-231.616c23.904 0 43.232 19.328 43.232 43.2s-19.328 43.2-43.232 43.2-43.136-19.296-43.136-43.2c-.032-23.84 19.264-43.2 43.136-43.2zm-135.04 323.232c-4.032 1.12-8.128 1.664-12.096 1.664-19.744 0-37.856-13.088-43.392-32.992-6.784-24.16-9.984-46.368-10.816-66.592-4.032-106.464 61.568-158.816 64.832-161.408 19.712-15.232 48.032-11.648 63.2 8.032 15.168 19.488 11.744 47.36-7.328 62.72-2.336 1.952-30.784 27.52-30.592 82.24.096 14.752 2.208 31.616 7.488 50.784 6.688 24.032-7.36 48.864-31.296 55.552z" fill="#eccb90"/></svg>

<?xml version="1.0" standalone="no"?><!DOCTYPE svg PUBLIC "-//W3C//DTD SVG 1.1//EN" "http://www.w3.org/Graphics/SVG/1.1/DTD/svg11.dtd"><svg t="1559013163582" class="icon" style="" viewBox="0 0 1024 1024" version="1.1" xmlns="http://www.w3.org/2000/svg" p-id="5547" xmlns:xlink="http://www.w3.org/1999/xlink" width="200" height="200"><defs><style type="text/css"></style></defs><path d="M1017.152 426.592c0.864-8.64 1.312-17.44 1.312-26.304 0-145.408-117.856-263.328-263.296-263.328-107.04 0-199.168 63.968-240.32 155.712C473.696 200.896 381.568 136.96 274.528 136.96c-145.408 0-263.264 117.92-263.264 263.328 0 8.864 0.448 17.664 1.28 26.304 0 0 5.152 259.264 505.536 520.096l0 0C1018.4 685.856 1017.152 426.592 1017.152 426.592zM282.016 194.976c23.904 0 43.232 19.328 43.232 43.2s-19.328 43.2-43.232 43.2S238.88 262.08 238.88 238.176C238.848 214.336 258.144 194.976 282.016 194.976zM146.976 518.208c-4.032 1.12-8.128 1.664-12.096 1.664-19.744 0-37.856-13.088-43.392-32.992-6.784-24.16-9.984-46.368-10.816-66.592C76.64 313.824 142.24 261.472 145.504 258.88c19.712-15.232 48.032-11.648 63.2 8.032 15.168 19.488 11.744 47.36-7.328 62.72-2.336 1.952-30.784 27.52-30.592 82.24 0.096 14.752 2.208 31.616 7.488 50.784C184.96 486.688 170.912 511.52 146.976 518.208z" p-id="5548" fill="#eccb90"></path></svg>
